X:112
T:King William going out a hunting
T:pretty. what words?
Z:Jack Campin - http://www.campin.me.uk
S:Blaikie MS (NLS MS.1578) p33, Blaikie #106
M:6/8
L:1/8
V:1 midi program 1 74
V:2 midi program 1 46 bass middle = d transpose -24
Q:3/8=80
K:E Minor
[V:1] D   |EBD EBD|EGA B2e|dBA/G/ DGA|BAA    A2
[V:2] z   |G2g G2g|G2g G2c|Bdg    GBd|D2d    d2
%
[V:1] D/E/|GAB Bee|eEF G2G|A2A    AGB|A/G/EE E2|]
[V:2] z   |G2g G2g|c'3 b3 |a2a    b2B|E2e    e2|]
W:Transcription (c) Jack Campin 2009, no mirroring or republication without permission

